src/img/sprite/new-markets.svg

<svg width="160" height="161" viewBox="0 0 160 161" fill="none" xmlns="http://www.w3.org/2000/svg">
<path fill-rule="evenodd" clip-rule="evenodd" d="M92.7281 144.611C123.018 144.611 148.089 122.267 152.359 93.1627C151.033 93.9252 149.688 94.6422 148.376 95.3412C141.342 99.0858 137.079 101.688 137.195 106.234C137.226 107.607 136.763 108.813 135.863 109.727C133.815 111.798 130.217 111.753 126.065 111.7L125.946 111.699C122.708 111.666 118.727 111.626 117.241 112.932C115.463 114.495 113.371 115.104 111.216 115.104C107.899 115.104 104.438 113.66 101.758 112.033C102.351 110.206 102.521 108.275 102.272 106.392C102.322 106.427 102.37 106.463 102.419 106.501C104.433 108.074 110.872 111.954 113.985 109.222C116.892 106.669 121.739 106.717 126.037 106.76L126.13 106.761C128.114 106.791 131.365 106.828 132.255 106.318C132.13 98.3978 139.209 94.6268 146.06 90.9794C148.497 89.6808 150.881 88.4089 152.942 86.9942C152.981 86.1139 153 85.2286 153 84.3388C153 51.0516 126.015 24.067 92.7281 24.067C89.6418 24.067 86.6096 24.299 83.6481 24.7465C82.6683 26.2933 81.8991 28.3545 81.5724 31.313C81.3584 33.2651 81.0884 34.9687 80.8498 36.4714C79.9001 42.4792 79.9577 43.3236 82.9945 44.6766C86.4197 46.204 88.5974 46.4345 90.9034 46.6764C92.4901 46.8427 94.1311 47.0155 96.0734 47.6081C100.904 49.0845 100.486 55.8922 100.233 59.9611C100.21 60.3347 100.185 60.7758 100.165 61.1659L100.182 61.1725L100.183 61.1854C98.4959 61.6682 96.8911 62.5035 95.4865 63.6872C95.1144 62.7087 95.1958 61.3677 95.2983 59.6795L95.2997 59.6566C95.6915 53.3508 94.959 52.434 94.6282 52.332C93.1369 51.8794 91.8597 51.7444 90.3799 51.588L90.3782 51.5878C87.913 51.3278 85.1168 51.0329 80.9782 49.1882C74.3038 46.2156 75.0379 41.5739 75.9678 35.7011L75.9748 35.6568C76.2019 34.2176 76.4587 32.5897 76.6591 30.7714C76.862 28.9382 77.2144 27.3493 77.6707 25.9631C56.6969 31.3573 40.1397 47.757 34.5212 68.6398C40.575 70.4926 47.4305 73.605 46.9856 78.121C46.8951 79.0378 46.7502 79.9859 46.6021 80.9389C46.0704 84.3938 45.8186 86.7377 47.1123 87.7187C47.5107 87.5623 48.2876 86.8957 48.7665 86.4826C50.1442 85.2975 53.3736 82.529 56.315 85.6332C56.9822 86.3382 58.2113 87.2458 59.5142 88.2077L59.5295 88.2191C63.3284 91.0205 67.6343 94.1972 66.6813 98.3467C66.3636 99.7524 65.8106 101.298 65.2756 102.791L65.2674 102.814C64.8026 104.113 64.0556 106.2 64.0033 107.054C65.5242 109.184 70.5658 117.657 70.0078 120.113C70.0108 120.17 70.0335 120.519 70.0602 120.926L70.0616 120.948C70.0781 121.2 70.0959 121.474 70.1115 121.715C70.3304 125.1 70.4143 127.831 69.3626 129.607C69.3174 129.683 66.9107 133.593 63.899 137.282C72.4626 141.955 82.2852 144.611 92.7281 144.611ZM32.4563 84.3388C32.4563 80.6399 32.7895 77.0188 33.4275 73.5039C37.809 74.9257 41.4638 76.689 42.0592 77.7869C41.9759 78.5632 41.8519 79.3657 41.7277 80.1697L41.7245 80.1907C41.1254 84.0827 40.38 88.9261 44.2401 91.7365C47.485 94.0916 50.4078 91.5842 51.9839 90.2321L52.0074 90.2119C52.3197 89.9437 52.7351 89.587 53.0543 89.3581C53.9943 90.2719 55.2509 91.2004 56.5709 92.1757L56.5981 92.1957C57.9576 93.1981 62.0972 96.253 61.8668 97.2538C61.6143 98.3706 61.1149 99.7637 60.631 101.114L60.6258 101.128C59.304 104.814 58.1634 107.997 60.0842 110.023C61.0817 111.115 64.6008 117.805 65.1127 119.542C65.0649 120.118 65.1077 120.852 65.1834 122.036C65.2674 123.321 65.4616 126.331 65.1192 127.082C63.7993 129.288 61.64 132.288 59.6188 134.71C43.2559 123.933 32.4563 105.397 32.4563 84.3388ZM92.7281 151.611C129.881 151.611 160 121.492 160 84.3388C160 47.1856 129.881 17.067 92.7281 17.067C55.5749 17.067 25.4563 47.1856 25.4563 84.3388C25.4563 121.492 55.5749 151.611 92.7281 151.611Z" fill="#D7BF6A"/>
<path fill-rule="evenodd" clip-rule="evenodd" d="M127.892 144.611C141.759 144.611 153 133.37 153 119.503C153 105.636 141.759 94.3943 127.892 94.3943C114.025 94.3943 102.783 105.636 102.783 119.503C102.783 133.37 114.025 144.611 127.892 144.611ZM127.892 151.611C145.625 151.611 160 137.236 160 119.503C160 101.77 145.625 87.3943 127.892 87.3943C110.159 87.3943 95.7833 101.77 95.7833 119.503C95.7833 137.236 110.159 151.611 127.892 151.611Z" fill="white"/>
<path fill-rule="evenodd" clip-rule="evenodd" d="M101.676 71.5761C102.724 70.4522 104.484 70.3901 105.608 71.4373L114.81 80.0123C115.934 81.0595 115.996 82.8196 114.949 83.9434C113.901 85.0673 112.141 85.1294 111.018 84.0822L101.815 75.5072C100.691 74.46 100.629 72.6999 101.676 71.5761ZM79.234 75.0788C80.272 73.9464 82.0315 73.8699 83.1639 74.908L100.781 91.0574C101.914 92.0955 101.99 93.8549 100.952 94.9873C99.9142 96.1197 98.1547 96.1962 97.0223 95.1582L79.4048 79.0087C78.2725 77.9707 78.196 76.2112 79.234 75.0788ZM78.3639 97.6034C79.4112 96.4795 81.1712 96.4174 82.2951 97.4646L91.4974 106.04C92.6213 107.087 92.6834 108.847 91.6362 109.971C90.5889 111.095 88.8289 111.157 87.705 110.109L78.5026 101.535C77.3788 100.487 77.3167 98.7272 78.3639 97.6034Z" fill="#9AC8DE"/>
</svg>

<svg xmlns="http://www.w3.org/2000/svg" fill="none" viewBox="0 0 160 161"><defs/><path fill="url(#paint0_linear)" fill-opacity=".5" fill-rule="evenodd" d="M30 30.61v100.001h100v-100H30zM8 .61a8 8 0 00-8 8v144.001a8 8 0 008 8h144a8 8 0 008-8v-144a8 8 0 00-8-8H8z" clip-rule="evenodd"/><path fill="#D7BF6A" fill-rule="evenodd" d="M92.728 144.611c30.29 0 55.361-22.344 59.631-51.448-1.326.762-2.671 1.48-3.983 2.178-7.034 3.745-11.297 6.347-11.181 10.893.031 1.373-.432 2.579-1.332 3.493-2.048 2.071-5.646 2.026-9.798 1.973l-.119-.001c-3.238-.033-7.219-.073-8.705 1.233-1.778 1.563-3.87 2.172-6.025 2.172-3.317 0-6.778-1.444-9.458-3.071.593-1.827.763-3.758.514-5.641.05.035.098.071.147.109 2.014 1.573 8.453 5.453 11.566 2.721 2.907-2.553 7.754-2.505 12.052-2.462l.093.001c1.984.03 5.235.067 6.125-.443-.125-7.92 6.954-11.691 13.805-15.339 2.437-1.298 4.821-2.57 6.882-3.985.039-.88.058-1.765.058-2.655 0-33.287-26.985-60.272-60.272-60.272-3.086 0-6.118.232-9.08.68-.98 1.546-1.749 3.608-2.076 6.566-.214 1.952-.484 3.656-.722 5.158-.95 6.008-.892 6.853 2.145 8.206 3.425 1.527 5.602 1.758 7.908 2 1.587.166 3.228.339 5.17.931 4.831 1.477 4.413 8.284 4.16 12.353-.023.374-.048.815-.068 1.205l.017.007.001.012a12.7 12.7 0 00-4.697 2.502c-.372-.978-.29-2.32-.188-4.008l.002-.022c.392-6.306-.341-7.223-.672-7.325-1.491-.453-2.768-.588-4.248-.744h-.002c-2.465-.26-5.261-.555-9.4-2.4-6.674-2.972-5.94-7.614-5.01-13.487l.007-.044c.227-1.44.484-3.067.684-4.886.203-1.833.555-3.422 1.012-4.808C56.697 31.357 40.14 47.757 34.52 68.64c6.054 1.853 12.91 4.965 12.465 9.481-.09.917-.236 1.865-.384 2.818-.532 3.455-.783 5.799.51 6.78.399-.157 1.176-.823 1.654-1.236 1.378-1.186 4.608-3.954 7.549-.85.667.705 1.896 1.613 3.2 2.575l.014.011c3.8 2.802 8.105 5.978 7.152 10.128-.317 1.405-.87 2.951-1.405 4.444l-.009.023c-.464 1.299-1.211 3.386-1.264 4.24 1.521 2.13 6.563 10.603 6.005 13.059l.052.813.002.022.05.767c.218 3.385.302 6.116-.75 7.892-.045.076-2.451 3.986-5.463 7.675 8.564 4.673 18.386 7.329 28.83 7.329zM32.456 84.339c0-3.7.333-7.32.971-10.835 4.382 1.422 8.037 3.185 8.632 4.283-.083.776-.207 1.579-.331 2.383l-.004.02c-.599 3.893-1.344 8.736 2.516 11.547 3.245 2.355 6.168-.153 7.744-1.505l.023-.02c.313-.268.728-.625 1.047-.854.94.914 2.197 1.842 3.517 2.818l.027.02c1.36 1.002 5.5 4.057 5.269 5.058-.253 1.117-.752 2.51-1.236 3.86l-.005.014c-1.322 3.686-2.463 6.869-.542 8.895.998 1.092 4.517 7.782 5.029 9.519-.048.576-.005 1.31.07 2.494.084 1.285.279 4.295-.064 5.046-1.32 2.206-3.479 5.206-5.5 7.628-16.363-10.777-27.163-29.313-27.163-50.371zm60.272 67.272c37.153 0 67.272-30.119 67.272-67.272 0-37.153-30.119-67.272-67.272-67.272-37.153 0-67.272 30.119-67.272 67.272 0 37.153 30.119 67.272 67.272 67.272z" clip-rule="evenodd"/><path fill="#fff" fill-rule="evenodd" d="M127.892 144.611c13.867 0 25.108-11.241 25.108-25.108s-11.241-25.109-25.108-25.109-25.109 11.242-25.109 25.109 11.242 25.108 25.109 25.108zm0 7c17.733 0 32.108-14.375 32.108-32.108 0-17.733-14.375-32.109-32.108-32.109-17.733 0-32.109 14.376-32.109 32.109 0 17.733 14.376 32.108 32.109 32.108z" clip-rule="evenodd"/><path fill="#9AC8DE" fill-rule="evenodd" d="M101.676 71.576a2.783 2.783 0 013.932-.139l9.202 8.575a2.782 2.782 0 01-3.792 4.07l-9.203-8.575a2.782 2.782 0 01-.139-3.93zM79.234 75.08a2.781 2.781 0 013.93-.171l17.617 16.15a2.781 2.781 0 11-3.759 4.1l-17.617-16.15a2.782 2.782 0 01-.171-3.93zm-.87 22.524a2.782 2.782 0 013.931-.138l9.202 8.575a2.781 2.781 0 11-3.792 4.069l-9.202-8.574a2.782 2.782 0 01-.14-3.932z" clip-rule="evenodd"/><defs><linearGradient id="paint0_linear" x1="80" x2="80" y1=".611" y2="160.611" gradientUnits="userSpaceOnUse"><stop stop-color="#D7BF6A"/><stop offset="1" stop-color="#D7BF6A" stop-opacity="0"/></linearGradient></defs></svg>
